src/lib/packages/icons/src/assets/filled/tooth.svg

<svg width="24" height="24" viewBox="0 0 24 24" fill="none" xmlns="http://www.w3.org/2000/svg">
<path d="M18.89 13C17.036 16 17.4139 21 15.4449 21C12.4919 21 14.014 15 12 15C9.98598 15 11.508 21 8.55503 21C6.58603 21 6.96396 16 5.10996 13C2.78196 9.234 4.12494 3.004 9.04294 3C9.04394 3 9.045 3.00098 9.046 3.00098C9.4 3.00098 9.73992 3.03512 10.0649 3.09912C10.0729 3.10012 10.081 3.10103 10.089 3.10303C11.078 3.30403 11.9319 3.8021 12.6419 4.6001C13.0759 5.0591 13.434 5.62709 13.709 6.28809C13.829 6.57609 14.107 6.75 14.401 6.75C14.498 6.75 14.5939 6.73089 14.6889 6.69189C15.0719 6.53289 15.252 6.09391 15.093 5.71191C14.748 4.88291 14.2899 4.16191 13.7459 3.58691C13.6649 3.49491 13.6529 3.23405 13.9079 3.15405C14.2049 3.05805 14.549 3 14.9489 3C19.874 3 21.218 9.233 18.89 13Z" fill="currentColor"/>
</svg>

<svg xmlns="http://www.w3.org/2000/svg" width="24" height="24" fill="none"><path fill="currentColor" d="M18.89 13c-1.854 3-1.476 8-3.445 8-2.953 0-1.431-6-3.445-6s-.492 6-3.445 6c-1.969 0-1.591-5-3.445-8-2.328-3.766-.985-9.996 3.933-10l.003.001c.354 0 .694.034 1.019.098l.024.004c.989.201 1.843.7 2.553 1.497a5.525 5.525 0 0 1 1.067 1.688.75.75 0 1 0 1.384-.576c-.345-.83-.803-1.55-1.347-2.125a.28.28 0 0 1 .162-.433A3.363 3.363 0 0 1 14.948 3c4.926 0 6.27 6.233 3.942 10Z"/></svg>
